googleplus_square.svg

<svg enable-background="new 0 0 200 200" height="200" viewBox="0 0 200 200" width="200" xmlns="http://www.w3.org/2000/svg"><path d="m0 200v-199.9-.1h.1 199.9v200zm79.3-105.2v16.4h22.3c-3.5 10.6-8.9 16.4-22.3 16.4-13.5 0-24.1-11-24.1-24.5s10.6-24.5 24.1-24.5c7.2 0 11.8 2.5 16 6 3.4-3.4 3.1-3.9 11.8-12-16.9-15.3-43-14.1-58.3 2.8s-14.1 43 2.8 58.3c7.6 6.9 17.5 10.7 27.8 10.7 34.1 0 42.4-29.7 39.7-49.5h-39.8zm74.4.8v-14.3h-10.2v14.3h-14.7v10.2h14.7v14.7h10.2v-14.7h14.3v-10.2z"/></svg>

<svg version="1.1" id="Layer_1" xmlns="http://www.w3.org/2000/svg" xmlns:xlink="http://www.w3.org/1999/xlink" x="0px" y="0px"
	 viewBox="0 0 200 200" style="enable-background:new 0 0 200 200;" xml:space="preserve" width="200" height="200">
<path d="M0,200V0.1V0h0.1H200v200H0z M79.3,94.8v16.4c0,0,15.9,0,22.3,0c-3.5,10.6-8.9,16.4-22.3,16.4c-13.5,0-24.1-11-24.1-24.5
	s10.6-24.5,24.1-24.5c7.2,0,11.8,2.5,16,6c3.4-3.4,3.1-3.9,11.8-12c-16.9-15.3-43-14.1-58.3,2.8s-14.1,43,2.8,58.3
	c7.6,6.9,17.5,10.7,27.8,10.7c34.1,0,42.4-29.7,39.7-49.5H79.3V94.8z M153.7,95.6V81.3h-10.2v14.3h-14.7v10.2h14.7v14.7h10.2v-14.7
	H168V95.6H153.7z"/>
</svg>
